svg/u1f927.svg

<svg viewBox="0 0 128 128" xmlns="http://www.w3.org/2000/svg">
  <g id="gold">
    <radialGradient id="face_1_" cx="63.6" cy="2288.8999" gradientTransform="matrix(1 0 0 1 0 -2226)" gradientUnits="userSpaceOnUse" r="56.9597">
      <stop offset="0.5" stop-color="#FDE030"/>
      <stop offset="0.92" stop-color="#F7C02B"/>
      <stop offset="1" stop-color="#F4A223"/>
    </radialGradient>
    <path id="face" d="M63.6,118.8c-27.9,0-58-17.5-58-55.9S35.7,7,63.6,7c15.5,0,29.8,5.1,40.4,14.4 c11.5,10.2,17.6,24.6,17.6,41.5s-6.1,31.2-17.6,41.4C93.4,113.6,79,118.8,63.6,118.8z" fill="url(#face_1_)"/>
    <path d="M111.49,29.67c5.33,8.6,8.11,18.84,8.11,30.23c0,16.9-6.1,31.2-17.6,41.4 c-10.6,9.3-25,14.5-40.4,14.5c-18.06,0-37-7.35-48.18-22.94c10.76,17.66,31,25.94,50.18,25.94c15.4,0,29.8-5.2,40.4-14.5 c11.5-10.2,17.6-24.5,17.6-41.4C121.6,50.16,118.13,38.84,111.49,29.67z" fill="#EB8F00"/>
  </g>
  <g id="facial_expressions">
    <g id="sneezing-face">
      <path id="mouth" d="M104.75,79.63l-11.6-3c-2.14-0.56-4.32,0.72-4.88,2.86c-0.06,0.24-0.1,0.48-0.12,0.72 l-0.56,7.45L81,83.9c-1.92-1.09-4.36-0.43-5.46,1.49c-0.09,0.16-0.17,0.33-0.24,0.51l-2.66,6.84l-5.22-6.13 c-0.78-0.92-1.93-1.43-3.13-1.41h-0.28h-0.27c-1.2-0.02-2.35,0.49-3.13,1.41l-5.22,6.13l-2.69-6.82 c-0.81-2.05-3.14-3.06-5.19-2.24c-0.17,0.07-0.34,0.15-0.51,0.24l-6.63,3.76l-0.56-7.45c-0.16-2.2-2.08-3.86-4.28-3.7 c-0.24,0.02-0.48,0.06-0.72,0.12l-11.6,3c-2.16,0.47-3.53,2.6-3.06,4.76c0.47,2.16,2.6,3.53,4.76,3.06 c0.1-0.02,0.2-0.05,0.29-0.08l7-1.8l0.67,9c0.15,2.2,2.06,3.87,4.27,3.71c0.61-0.04,1.2-0.22,1.73-0.53l8.1-4.59l3.41,8.76 c0.51,1.31,1.67,2.26,3.06,2.49c0.22,0.04,0.45,0.06,0.67,0.06c1.16-0.01,2.25-0.53,3-1.41l7.08-8.28l0.3,0.79l6.37,7.41 c0.75,0.88,1.84,1.4,3,1.41c0.22,0,0.45-0.02,0.67-0.06c1.39-0.23,2.55-1.18,3.06-2.49l3.41-8.76l8.1,4.59 c1.91,1.11,4.36,0.46,5.47-1.45c0.31-0.53,0.49-1.12,0.53-1.73l0.67-9l7,1.8c2.12,0.63,4.35-0.57,4.98-2.68 c0.63-2.12-0.57-4.35-2.68-4.98c-0.1-0.03-0.2-0.05-0.29-0.08L104.75,79.63z" fill="#422B0D"/>
      <g id="eyes">
        <path d="M34,57.4L46.21,55l-12.55-5.17l-0.42-0.23c-2.05-1.08-2.83-3.61-1.75-5.66 c0.26-0.49,0.61-0.92,1.03-1.27c2-1.54,4.75-1.66,6.88-0.3l21.27,13c0.52,0.19,0.78,0.77,0.59,1.28 c-0.13,0.35-0.44,0.6-0.81,0.65l-22.91,8.6c-0.15,0.06-0.32,0.11-0.48,0.16c-3,0.84-6.33-0.89-6.79-3.78 C29.91,60.11,31.61,58.07,34,57.4z" fill="#422B0D"/>
        <path d="M96.65,57.15l-12.17-2.36L97,49.58l0.41-0.23c2.05-1.08,2.84-3.61,1.76-5.66 c-0.26-0.49-0.61-0.92-1.03-1.27c-2-1.54-4.75-1.66-6.88-0.3L70,55.16c-0.52,0.19-0.79,0.76-0.6,1.28 c0.13,0.35,0.44,0.6,0.81,0.65l22.91,8.6l0.49,0.16c3,0.84,6.32-0.89,6.79-3.78C100.78,59.86,99.07,57.82,96.65,57.15z" fill="#422B0D"/>
      </g>
      <g id="prop">
        <path d="M57.67,64.62C41,75.25,20.43,77.64,6.17,80.55c-1.88,0.38-3,3.12-1.56,7.26 c2.73,7.9,7.93,7.77,6.53,11.44c-4.14,10.87,4.3,15.55,11.59,15.68c9.86,0.19,8.91,3.48,13,6.69c3.91,3.06,8.66,0.94,8.66,0.94 c18.33-11.11,25.4-36.44,25.39-48.7C69.77,64.45,62.73,61.39,57.67,64.62z" fill="#F5F5F5"/>
        <path d="M6.17,80.55c-0.7,0.23-1.26,0.76-1.52,1.45c-0.26,0.63-0.38,1.32-0.35,2 c0.05,1.4,0.39,2.78,1,4.05c0.55,1.29,1.27,2.51,2.13,3.62c0.91,1.09,1.91,2.09,3,3c0.67,0.54,1.24,1.18,1.69,1.91 c0.12,0.24,0.22,0.49,0.3,0.74c0.07,0.27,0.11,0.54,0.12,0.82c0,0.26-0.02,0.53-0.06,0.79l-0.18,0.71l-0.54,2 c-0.12,0.66-0.2,1.33-0.25,2c-0.1,1.25,0.07,2.51,0.49,3.7c0.45,1.12,1.17,2.12,2.08,2.91c0.95,0.83,2.05,1.47,3.23,1.9 c1.21,0.48,2.49,0.78,3.79,0.89c0.33,0.05,0.67,0.07,1,0.07h1c0.77,0,1.53,0,2.32,0.1c1.66,0.09,3.29,0.45,4.84,1.06 c0.85,0.36,1.64,0.83,2.36,1.41c0.64,0.55,1.23,1.15,1.77,1.8c0.79,1.03,1.71,1.95,2.75,2.74c0.88,0.62,1.92,0.99,3,1.07 c0.58,0.04,1.16,0.01,1.74-0.08c0.29,0,0.59-0.11,0.87-0.18s0.61-0.19,0.76-0.24l-0.22,0.11c3.86-2.4,7.34-5.38,10.3-8.83 c0.38-0.44,0.77-0.85,1.13-1.3l1-1.38l1-1.37c0.34-0.47,0.63-1,1-1.44c0.64-1,1.31-1.9,1.87-2.92s1.21-2,1.71-3 c2.18-4.14,3.99-8.46,5.41-12.92c1.48-4.49,2.49-9.13,3-13.83c0.25,4.8-0.16,9.6-1.22,14.29c-0.24,1.18-0.55,2.34-0.84,3.51 s-0.7,2.31-1,3.47s-0.81,2.27-1.21,3.41s-1,2.23-1.42,3.35s-1.07,2.18-1.6,3.28s-1.17,2.13-1.79,3.19 c-0.31,0.52-0.62,1-0.95,1.56l-1.06,1.51l-1,1.5c-0.37,0.49-0.78,1-1.16,1.44c-3.08,3.89-6.8,7.22-11,9.87l-0.11,0.06h-0.11 c-0.43,0.18-0.87,0.33-1.32,0.46c-0.42,0.11-0.84,0.21-1.27,0.28c-0.87,0.15-1.75,0.2-2.63,0.15c-0.91-0.06-1.81-0.23-2.67-0.52 c-0.87-0.31-1.69-0.74-2.44-1.28c-1.31-0.99-2.49-2.14-3.49-3.44c-0.38-0.48-0.81-0.93-1.26-1.34c-0.42-0.34-0.89-0.63-1.39-0.84 c-1.18-0.45-2.43-0.74-3.69-0.84c-0.66-0.09-1.36-0.12-2.06-0.16l-1.15-0.08c-0.4,0-0.8-0.06-1.2-0.13 c-1.61-0.22-3.18-0.65-4.67-1.29c-1.55-0.63-2.97-1.55-4.17-2.72c-1.23-1.21-2.16-2.69-2.7-4.33c-0.48-1.62-0.61-3.32-0.39-5 c0.11-0.77,0.27-1.52,0.48-2.27c0.25-0.73,0.54-1.49,0.79-2.18c0.2-0.36,0.24-0.8,0.09-1.19c-0.29-0.55-0.66-1.05-1.1-1.48 c-1.08-1.07-2.04-2.25-2.87-3.53c-0.82-1.29-1.46-2.69-1.9-4.15c-0.5-1.44-0.7-2.96-0.59-4.47c0.07-0.77,0.32-1.51,0.72-2.17 C4.74,81.15,5.41,80.69,6.17,80.55z" fill="#BDBDBD"/>
        <path d="M30.5,90.78c-2.85,0.71-5.75,1.22-8.67,1.51c-1.47,0.05-2.71-1.11-2.76-2.58 c-0.04-1.33,0.9-2.49,2.22-2.72c12.76-1.3,19-3.91,29.38-10.76c2.88-1.86,5.56-4,8-6.41c-2.49,5.15-6.18,9.63-10.76,13.07 C42.88,86.7,37.48,89,30.5,90.78z" fill="#B3B3B3"/>
        <path d="M42.21,103.87c-1.11,0.34-2.31-0.11-2.92-1.1c-0.79-1.22-0.47-2.85,0.71-3.69 c5.8-3.69,10.81-8.5,14.72-14.16c1.92-2.85,4.77-8,4.77-8c-0.34,2.92-0.93,5.8-1.78,8.61C54.22,96.5,44.67,103.09,42.21,103.87z" fill="#B3B3B3"/>
      </g>
    </g>
  </g>
</svg>

<svg viewBox="0 0 128 128" xmlns="http://www.w3.org/2000/svg">
  <defs>
    <radialGradient id="face_1_" cx="63.6" cy="62.8999" gradientUnits="userSpaceOnUse" r="56.9597">
      <stop offset="0.5" stop-color="#FDE030"/>
      <stop offset="0.92" stop-color="#F7C02B"/>
      <stop offset="1" stop-color="#F4A223"/>
    </radialGradient>
  </defs>
  <path id="face" d="M63.6,118.8 C35.7,118.8 5.6,101.3 5.6,62.9 C5.6,24.5 35.7,7 63.6,7 C79.1,7 93.4,12.1 104,21.4 C115.5,31.6 121.6,46 121.6,62.9 C121.6,79.8 115.5,94.1 104,104.3 C93.4,113.6 79,118.8 63.6,118.8 Z" fill="url(#face_1_)"/>
  <path d="M111.49,29.67 C116.82,38.27 119.6,48.51 119.6,59.9 C119.6,76.8 113.5,91.1 102,101.3 C91.4,110.6 77,115.8 61.6,115.8 C43.54,115.8 24.6,108.45 13.42,92.86 C24.18,110.52 44.42,118.8 63.6,118.8 C79,118.8 93.4,113.6 104,104.3 C115.5,94.1 121.6,79.8 121.6,62.9 C121.6,50.16 118.13,38.84 111.49,29.67 Z" fill="#EB8F00"/>
  <path id="mouth" d="M104.75,79.63 L93.15,76.63 C91.01,76.07 88.83,77.35 88.27,79.49 C88.21,79.73 88.17,79.97 88.15,80.21 L87.59,87.66 L81,83.9 C79.08,82.81 76.64,83.47 75.54,85.39 C75.45,85.55 75.37,85.72 75.3,85.9 L72.64,92.74 L67.42,86.61 C66.64,85.69 65.49,85.18 64.29,85.2 L64.01,85.2 L63.74,85.2 C62.54,85.18 61.39,85.69 60.61,86.61 L55.39,92.74 L52.7,85.92 C51.89,83.87 49.56,82.86 47.51,83.68 C47.34,83.75 47.17,83.83 47,83.92 L40.37,87.68 L39.81,80.23 C39.65,78.03 37.73,76.37 35.53,76.53 C35.29,76.55 35.05,76.59 34.81,76.65 L23.21,79.65 C21.05,80.12 19.68,82.25 20.15,84.41 C20.62,86.57 22.75,87.94 24.91,87.47 C25.01,87.45 25.11,87.42 25.2,87.39 L32.2,85.59 L32.87,94.59 C33.02,96.79 34.93,98.46 37.14,98.3 C37.75,98.26 38.34,98.08 38.87,97.77 L46.97,93.18 L50.38,101.94 C50.89,103.25 52.05,104.2 53.44,104.43 C53.66,104.47 53.89,104.49 54.11,104.49 C55.27,104.48 56.36,103.96 57.11,103.08 L64.19,94.8 L64.49,95.59 L70.86,103 C71.61,103.88 72.7,104.4 73.86,104.41 C74.08,104.41 74.31,104.39 74.53,104.35 C75.92,104.12 77.08,103.17 77.59,101.86 L81,93.1 L89.1,97.69 C91.01,98.8 93.46,98.15 94.57,96.24 C94.88,95.71 95.06,95.12 95.1,94.51 L95.77,85.51 L102.77,87.31 C104.89,87.94 107.12,86.74 107.75,84.63 C108.38,82.51 107.18,80.28 105.07,79.65 C104.97,79.62 104.87,79.6 104.78,79.57 L104.75,79.63 Z" fill="#422B0D"/>
  <path d="M34,57.4 L46.21,55 L33.66,49.83 L33.24,49.6 C31.19,48.52 30.41,45.99 31.49,43.94 C31.75,43.45 32.1,43.02 32.52,42.67 C34.52,41.13 37.27,41.01 39.4,42.37 L60.67,55.37 C61.19,55.56 61.45,56.14 61.26,56.65 C61.13,57 60.82,57.25 60.45,57.3 L37.54,65.9 C37.39,65.96 37.22,66.01 37.06,66.06 C34.06,66.9 30.73,65.17 30.27,62.28 C29.91,60.11 31.61,58.07 34,57.4 Z" fill="#422B0D"/>
  <path d="M96.65,57.15 L84.48,54.79 L97,49.58 L97.41,49.35 C99.46,48.27 100.25,45.74 99.17,43.69 C98.91,43.2 98.56,42.77 98.14,42.42 C96.14,40.88 93.39,40.76 91.26,42.12 L70,55.16 C69.48,55.35 69.21,55.92 69.4,56.44 C69.53,56.79 69.84,57.04 70.21,57.09 L93.12,65.69 L93.61,65.85 C96.61,66.69 99.93,64.96 100.4,62.07 C100.78,59.86 99.07,57.82 96.65,57.15 Z" fill="#422B0D"/>
  <path d="M57.67,64.62 C41,75.25 20.43,77.64 6.17,80.55 C4.29,80.93 3.17,83.67 4.61,87.81 C7.34,95.71 12.54,95.58 11.14,99.25 C7,110.12 15.44,114.8 22.73,114.93 C32.59,115.12 31.64,118.41 35.73,121.62 C39.64,124.68 44.39,122.56 44.39,122.56 C62.72,111.45 69.79,86.12 69.78,73.86 C69.77,64.45 62.73,61.39 57.67,64.62 Z" fill="#F5F5F5"/>
  <path d="M6.17,80.55 C5.47,80.78 4.91,81.31 4.65,82 C4.39,82.63 4.27,83.32 4.3,84 C4.35,85.4 4.69,86.78 5.3,88.05 C5.85,89.34 6.57,90.56 7.43,91.67 C8.34,92.76 9.34,93.76 10.43,94.67 C11.1,95.21 11.67,95.85 12.12,96.58 C12.24,96.82 12.34,97.07 12.42,97.32 C12.49,97.59 12.53,97.86 12.54,98.14 C12.54,98.4 12.52,98.67 12.48,98.93 L12.3,99.64 L11.76,101.64 C11.64,102.3 11.56,102.97 11.51,103.64 C11.41,104.89 11.58,106.15 12,107.34 C12.45,108.46 13.17,109.46 14.08,110.25 C15.03,111.08 16.13,111.72 17.31,112.15 C18.52,112.63 19.8,112.93 21.1,113.04 C21.43,113.09 21.77,113.11 22.1,113.11 L23.1,113.11 C23.87,113.11 24.63,113.11 25.42,113.21 C27.08,113.3 28.71,113.66 30.26,114.27 C31.11,114.63 31.9,115.1 32.62,115.68 C33.26,116.23 33.85,116.83 34.39,117.48 C35.18,118.51 36.1,119.43 37.14,120.22 C38.02,120.84 39.06,121.21 40.14,121.29 C40.72,121.33 41.3,121.3 41.88,121.21 C42.17,121.21 42.47,121.1 42.75,121.03 C43.03,120.96 43.36,120.84 43.51,120.79 L43.29,120.9 C47.15,118.5 50.63,115.52 53.59,112.07 C53.97,111.63 54.36,111.22 54.72,110.77 L55.72,109.39 L56.72,108.02 C57.06,107.55 57.35,107.02 57.72,106.58 C58.36,105.58 59.03,104.68 59.59,103.66 C60.15,102.64 60.8,101.66 61.3,100.66 C63.48,96.52 65.29,92.2 66.71,87.74 C68.19,83.25 69.2,78.61 69.71,73.91 C69.96,78.71 69.55,83.51 68.49,88.2 C68.25,89.38 67.94,90.54 67.65,91.71 C67.36,92.88 66.95,94.02 66.65,95.18 C66.35,96.34 65.84,97.45 65.44,98.59 C65.04,99.73 64.44,100.82 64.02,101.94 C63.6,103.06 62.95,104.12 62.42,105.22 C61.89,106.32 61.25,107.35 60.63,108.41 C60.32,108.93 60.01,109.41 59.68,109.97 L58.62,111.48 L57.62,112.98 C57.25,113.47 56.84,113.98 56.46,114.42 C53.38,118.31 49.66,121.64 45.46,124.29 L45.35,124.35 L45.24,124.35 C44.81,124.53 44.37,124.68 43.92,124.81 C43.5,124.92 43.08,125.02 42.65,125.09 C41.78,125.24 40.9,125.29 40.02,125.24 C39.11,125.18 38.21,125.01 37.35,124.72 C36.48,124.41 35.66,123.98 34.91,123.44 C33.6,122.45 32.42,121.3 31.42,120 C31.04,119.52 30.61,119.07 30.16,118.66 C29.74,118.32 29.27,118.03 28.77,117.82 C27.59,117.37 26.34,117.08 25.08,116.98 C24.42,116.89 23.72,116.86 23.02,116.82 L21.87,116.74 C21.47,116.74 21.07,116.68 20.67,116.61 C19.06,116.39 17.49,115.96 16,115.32 C14.45,114.69 13.03,113.77 11.83,112.6 C10.6,111.39 9.67,109.91 9.13,108.27 C8.65,106.65 8.52,104.95 8.74,103.27 C8.85,102.5 9.01,101.75 9.22,101 C9.47,100.27 9.76,99.51 10.01,98.82 C10.21,98.46 10.25,98.02 10.1,97.63 C9.81,97.08 9.44,96.58 9,96.15 C7.92,95.08 6.96,93.9 6.13,92.62 C5.31,91.33 4.67,89.93 4.23,88.47 C3.73,87.03 3.53,85.51 3.64,84 C3.71,83.23 3.96,82.49 4.36,81.83 C4.74,81.15 5.41,80.69 6.17,80.55 Z" fill="#BDBDBD"/>
  <path d="M30.5,90.78 C27.65,91.49 24.75,92 21.83,92.29 C20.36,92.34 19.12,91.18 19.07,89.71 C19.03,88.38 19.97,87.22 21.29,86.99 C34.05,85.69 40.29,83.08 50.67,76.23 C53.55,74.37 56.23,72.23 58.67,69.82 C56.18,74.97 52.49,79.45 47.91,82.89 C42.88,86.7 37.48,89 30.5,90.78 Z" fill="#B3B3B3"/>
  <path d="M42.21,103.87 C41.1,104.21 39.9,103.76 39.29,102.77 C38.5,101.55 38.82,99.92 40,99.08 C45.8,95.39 50.81,90.58 54.72,84.92 C56.64,82.07 59.49,76.92 59.49,76.92 C59.15,79.84 58.56,82.72 57.71,85.53 C54.22,96.5 44.67,103.09 42.21,103.87 Z" fill="#B3B3B3"/>
</svg>
